X: 11211
M: 3/4
L: 1/8
Q: "Larghetto"
K: G
|:\
(c4 B2) | (e4 d)>B | A2 {B}A>GA>B | G4 z2 :|
|: c4 B2 |\
(B>A) A2 z2 | d4 c2 | (c>B) B2 z2 | e3 (f/^g/) a>a |\
d3 e/f/ g/a/b/g/ | e>a (g2 f2) | g2 G2 z2 :|


